X: 39975
T: Three Ashes, The
R: reel
M: 4/4
K: Dmajor
|:F3E DEFD|ADBD AFED|F3E DEFD|E2 A2 AGFE|
F3E DEFD|ADBD AFED|d2 cd D2 d2|dcBA GFED:|
|:d2 cd Ddcd|Ddcd DdcA|d2 cd Ddcd|dcBA GFED|
d2 cd Ddcd|Edcd Fdcd|f2 ed e2 A2|dcBA GFED:|

